neru-light-classic/22x22/emotes/face-surprise-symbolic.svg

<svg xmlns="http://www.w3.org/2000/svg" width="16" height="16"><path d="M8 1C4.13 1 1 4.13 1 8c0 3.86 3.13 7 7 7s7-3.14 7-7c0-3.87-3.13-7-7-7zM5 5c.55 0 1 .45 1 1s-.45 1-1 1-1-.45-1-1 .45-1 1-1zm6 0c.55 0 1 .45 1 1s-.45 1-1 1-1-.45-1-1 .45-1 1-1zM8 9c1.11 0 2 .89 2 2a2 2 0 1 1-4 0c0-1.11.89-2 2-2z" fill="#1e333d"/></svg>

<svg xmlns="http://www.w3.org/2000/svg" width="16" height="16" version="1.1">
 <path style="fill:#1e333d" d="M 8,1 C 4.13,1 1,4.13 1,8 1,11.86 4.13,15 8,15 11.87,15 15,11.86 15,8 15,4.13 11.87,1 8,1 Z M 5,5 C 5.55,5 6,5.45 6,6 6,6.55 5.55,7 5,7 4.45,7 4,6.55 4,6 4,5.45 4.45,5 5,5 Z M 11,5 C 11.55,5 12,5.45 12,6 12,6.55 11.55,7 11,7 10.45,7 10,6.55 10,6 10,5.45 10.45,5 11,5 Z M 8,9 C 9.11,9 10,9.89 10,11 10,12.1 9.11,13 8,13 6.89,13 6,12.1 6,11 6,9.89 6.89,9 8,9 Z"/>
</svg>
